X:350
T:Broad Hoop
A:Wyresdale, Lancashire
B:E and J Winder, 1835-41
L:1/8
M:C|
O:England
Z:Richard Robinson 
%%TUNEURL: http://www.leeds.ac.uk/music/Info/RRTuneBk/gettune/00000ebb.html
%%ID:00000ebb
K:G
B2G2 G2B2 | d2B2 d2f2 | A2F2 F2AB | c2F2 A2c2 |\
B2G2 G2B2 | d2c2 d2g2 | f2d2 c2A2 | G4-G4 ::
g2d2 d2(ef) | g2d2 d2f2 | c2c2 (ef)g2 | c4 c4 |\
f2d2 d2(ef) | g2d2 d2g2 | e2c2  A2F2  | G2G2 ::
%%text the B part is actually written as :-
%%scale .5
g2d d2(ef) | gd2 d3f2 | cc3 (ef)g2 | c3/c3 f2d2 |\
d2(ef) g2d2 | d2g2 e2c2 | A2F2 G2G2 ::
